assets/images/script/l.svg

<svg fill="none" height="248" viewBox="0 0 3092 248" width="3092" xmlns="http://www.w3.org/2000/svg"><g stroke="#000"><g stroke-dasharray="10 10"><path d="m0 154.5h3090"/><path d="m0 242.5h3090"/><path d="m0 94.5h3090"/><path d="m0 4.5h3090"/></g><g stroke-linecap="round" stroke-width="5"><path d="m82.4529 154.114c-1.8484 0-6.0367.694-3.7426-2.317 11.7393-15.407 27.3977-27.174 43.9307-36.89 11.526-6.775 35.672-24.1162 50.524-19.426 9.914 3.1309-11.444 24.102-13.723 26.465-1.882 1.952-23.01 21.83-17.108 24.148 13.684 5.376 29.366 4.153 42.771 11.644 18.004 10.061 23.154 16.234 16.614 34.604-7.895 22.175-42.277 35.69-46.643 37.643-24.329 10.878-49.078 12.454-74.7617 5.346-28.7029-7.943-60.6096-31.414-67.0094-62.465-8.42823-40.892 25.5879-70.935 55.5144-93.0681 37.5947-27.8044 87.9927-69.3904 135.7117-62.3264 27.472 4.0668 56.132 19.666 59.792 49.6333 3.181 26.0497-7.871 62.6482-28.426 78.9502-21.916 13.707-36.837-8.41-28.237-24.98 7.052-13.589 18.237-19.832 36.415-19.832" stroke-opacity=".3"/><path d="m82.4529 154.114c-1.8484 0-6.0367.694-3.7426-2.317 11.7393-15.407 27.3977-27.174 43.9307-36.89 11.526-6.775 35.672-24.1162 50.524-19.426 9.914 3.1309-11.444 24.102-13.723 26.465-1.882 1.952-23.01 21.83-17.108 24.148 13.684 5.376 29.366 4.153 42.771 11.644 18.004 10.061 23.154 16.234 16.614 34.604-7.895 22.175-42.277 35.69-46.643 37.643-24.329 10.878-49.078 12.454-74.7617 5.346-28.7029-7.943-60.6096-31.414-67.0094-62.465-8.42823-40.892 25.5879-70.935 55.5144-93.0681 37.5947-27.8044 87.9927-69.3904 135.7117-62.3264"/><path d="m541.71 135.861c-10.45 1.742-8.265 6.102-.339 11.337 21.524 14.213 53.326 9.447 75.298-1.015 21.637-10.304 29.371-34.48 8.122-49.578-24.47-17.3865-62.649-13.9447-90.357-8.7988-24.619 4.5721-49.473 14.8548-74.367 17.3438-3.327.333 2.186-3.121 2.2-3.13 9.997-7.0952 20.276-13.7777 30.542-20.4745 38.91-25.3836 79.027-48.4505 122.929-64.1297 25.11-8.96765 53.95-18.331272 79.951-6.9375 19.263 8.4414 36.106 26.668 31.303 48.8164-2.582 11.9054-7.908 23.4521-13.198 34.3491-4.991 10.2812-27.273 31.8312-28.213 43.5882-.494 6.172 4.064 8.401 9.137 10.152 10.122 3.493 20.221 5.672 28.934 12.352 17.291 13.257 8.963 37.706 2.031 54.485-1.994 4.825-10.633 29.147-18.444 27.412-12.483-2.774-5.702-19.71-1.523-26.397 17.382-27.81 46.639-53.281 75.213-68.867 6.351-3.465 14.804-8.438 22.251-9.222 1.146-.121-2.345 4.87-2.877 5.668" stroke-opacity=".3"/><path d="m695.689 10.4783c19.263 8.4413 36.106 26.6679 31.303 48.8163-2.582 11.9054-7.908 23.4522-13.198 34.3492-4.991 10.2812-27.273 31.8312-28.214 43.5872-.493 6.173 4.065 8.402 9.138 10.153 10.122 3.493 20.221 5.672 28.934 12.352 17.291 13.256 8.963 37.706 2.031 54.485-1.994 4.825-10.633 29.147-18.444 27.412-12.483-2.774-5.702-19.71-1.523-26.397 17.382-27.81 46.638-53.281 75.213-68.867 6.351-3.465 14.804-8.438 22.251-9.222 1.146-.121-2.345 4.87-2.877 5.668"/><path d="m967.308 132.312c10.342 7.348 34.042-7.003 40.252-16.837 4.88-7.743-1.56-14.881-7.2-17.985-12.017-6.608-27.801-.1461-38.16 8.036-8.535 6.74-15.123 18.893-14.094 31.99 1.391 17.692 18.179 21.485 29.418 16.99 17.596-7.038 31.826-25.893 47.386-37.654 16.19-12.228 38.6-24.3684 58.1-20.6631 25.3 4.8061-30.02 49.7201-30.22 57.3221-.17 6.729 13.21 2.989 25.13 11.668 13.15 10.966 28.84 34.545 21.95 54.949-2.89 8.563-15.46 24.57-24.25 19.746-6.48-3.564-3.93-18.863-2.83-24.797 3.06-16.466 9.74-32.217 18.9-44.694 14.84-20.238 36.4-34.913 57.42-42.398 2.78-.991 22.13-6.01 9.84-.918" stroke-opacity=".3"/><path d="m1024.91 116.852c16.18-12.228 38.6-24.3684 58.1-20.663 25.3 4.806-30.02 49.72-30.22 57.322-.17 6.729 13.21 2.989 25.13 11.668 13.15 10.966 28.84 34.545 21.95 54.95-2.89 8.562-15.46 24.57-24.25 19.745-6.48-3.564-3.93-18.863-2.83-24.796 3.06-16.467 9.74-32.218 18.9-44.695 14.84-20.238 36.4-34.913 57.42-42.398 2.78-.991 22.13-6.01 9.84-.918"/><path d="m1555.61 10.3829c27.75 0-55.51-.4541-83.25.3384-12.61.3602-50.43 1.1845-37.82 1.1845 2.47 0 5.7-.5198 8.04.3384 16.34 11.1122 14.85 16.9082 38.91 51.1784 24.07 34.2703 51.19 68.6224 61.26 110.1544 6.04 24.946 3.73 42.267-9.9 64.536-12.24 19.985-17.77-8.016-19.8-19.544-5.62-31.947-4.18-47.149 3.3-78.648 5.48-23.103 17.57-43.3474 41.63-43.3474 13.56 0 28.29 2.2023 28.07 20.4744-.17 14.157-16.62 22.479-17.35 36.295-.87 16.607 22.02 7.642 30.38 20.263 9.24 13.954 11.39 61.492-7.16 68.75-20.12 7.874-20.36-24-7.56-47.769 13.36-24.821 32-47.412 49.57-69.375" stroke-opacity=".3"/><path d="m1516.35 139.921c5.48-23.103 17.57-43.3475 41.63-43.3475 13.56 0 28.29 2.2023 28.07 20.4745-.17 14.157-16.62 22.479-17.35 36.295-.87 16.606 22.02 7.642 30.38 20.263 9.24 13.954 11.39 61.492-7.16 68.75-20.12 7.874-20.36-24-7.56-47.769 13.36-24.821 32-47.413 49.57-69.375"/><path d="m2303.33 141.976c-1.11-.99-2.41-2.012-4.02-1.553-2.51.72 10.89 7.641 11.79 7.946 25.51 8.664 78.73-3.581 83.11-35.162 3.81-27.54-39.98-30.8659-48.41-8.676-5.61 14.765 11.47 41.441 23.38 45.23 16.07 5.114 32.87 2.833 47.4-5.389 20.6-11.652 48.05-59.4633 74.71-52.6275 22.39 5.742 13.87 34.0175-17.17 45.7115-22.96 15.114 43.54 15.452 56.49 15.114 25.05.338 20.62.491 46.17.338 5.72-.034 11.38-.886 16.44 1.644" stroke-opacity=".3"/><path d="m2416.58 144.373c20.6-11.653 48.05-59.4642 74.71-52.6284 22.39 5.742 13.87 34.0174-17.17 45.7114-22.96 15.114 43.54 15.452 56.49 15.114 25.05.338 20.62.491 46.17.338 5.72-.034 11.38-.886 16.44 1.644"/><path d="m2957.73 3.17285c3.13 3.52332-1.44 3.25286-4.38 3.28789-26.98.32115-53.94 1.25938-80.92 1.55261-27.88.30307-56.04-1.21637-83.84 1.36995-7.41.6893-1.57.12064 1.73 1.5526 15.31 6.6346 29.12 28.2575 39 40.8246 26.77 34.0613 51.04 73.4285 65.1 114.3455 8.19 23.831 16.28 41.107 5.04 66.119-4.77 10.637-19.66 10.333-26.76 2.192-10.11-11.599-10.38-27.713-7.37-40.583 9.06-38.723 25.07-55.881 52.15-85.678 8.46-9.3089 28.81-20.9769 43.47-11.0971 13.67 9.2111 13.92 19.7461 10.78 34.1121-1.74 7.953-6.16 13.055-3.68 21.327 2.53 8.43 30.76 1.032 35.53.274 26.72-4.245 107.79-3.22 80.74-3.22" stroke-opacity=".3"/><path d="m2917.48 108.156c8.46-9.3088 28.81-20.9767 43.47-11.097 13.67 9.211 13.92 19.746 10.78 34.112-1.74 7.953-6.16 13.056-3.68 21.327 2.53 8.43 30.76 1.032 35.53.274 26.72-4.245 107.79-3.22 80.74-3.22"/><path d="m1903.82 133.756c-4.48.561 4 8.855 4.75 9.499 15.32 13.078 40.79 14.611 59.55 10.503 13.01-2.851 32.46-12.097 34.16-27.399 2.42-21.858-33.69-29.2899-48.59-31.3266-29.31-4.0061-59.57-7.2707-89.07-7.2707-13.74 1.7904-27 3-40.89 5.3991-6.12 1.1813-14.05 4.1099-20.46 4.1099-1.15 0 1.7-1.5449 2.65-2.192 11.7-6.317 11.7-6.1544 23.01-12.0741 35.8-18.7429 57.98-30.6655 88.96-45.1448 19.49-9.1114 143.21-60.1787 137.36-4.9319-2.3 21.7327-15.8 41.4455-22.1 62.1045-4.43 14.4946-11.99 38.8086-10.69 54.4186 1.66 5.811 12.75 5.812 22.66 5.311 24.13-1.22 41.81-3.5 65.11-3.718" stroke-opacity=".3"/><path d="m2055.25 32.928c-2.3 21.7327-15.8 41.4454-22.1 62.1045-4.43 14.4945-11.99 38.8085-10.69 54.4185 1.66 5.811 12.75 5.812 22.66 5.311 24.13-1.22 41.81-3.5 65.11-3.718"/></g></g></svg>

<svg width="3092" height="248" viewBox="0 0 3092 248" fill="none" xmlns="http://www.w3.org/2000/svg">
<line y1="154.5" x2="3090" y2="154.5" stroke="black" stroke-dasharray="10 10"/>
<line y1="242.5" x2="3090" y2="242.5" stroke="black" stroke-dasharray="10 10"/>
<line y1="94.5" x2="3090" y2="94.5" stroke="black" stroke-dasharray="10 10"/>
<line y1="4.5" x2="3090" y2="4.5" stroke="black" stroke-dasharray="10 10"/>
<path d="M82.4529 154.114C80.6045 154.114 76.4162 154.808 78.7103 151.797C90.4496 136.39 106.108 124.623 122.641 114.907C134.167 108.132 158.313 90.7908 173.165 95.481C183.079 98.6119 161.721 119.583 159.442 121.946C157.56 123.898 136.432 143.776 142.334 146.094C156.018 151.47 171.7 150.247 185.105 157.738C203.109 167.799 208.259 173.972 201.719 192.342C193.824 214.517 159.442 228.032 155.076 229.985C130.747 240.863 105.998 242.439 80.3143 235.331C51.6114 227.388 19.7047 203.917 13.3049 172.866C4.87667 131.974 38.8928 101.931 68.8193 79.7979C106.414 51.9935 156.812 10.4075 204.531 17.4715C232.003 21.5383 260.663 37.1375 264.323 67.1048C267.504 93.1545 256.452 129.753 235.897 146.055C213.981 159.762 199.06 137.645 207.66 121.075C214.712 107.486 225.897 101.243 244.075 101.243" stroke="black" stroke-opacity="0.3" stroke-width="5" stroke-linecap="round"/>
<path d="M82.4529 154.114C80.6045 154.114 76.4162 154.808 78.7103 151.797C90.4496 136.39 106.108 124.623 122.641 114.907C134.167 108.132 158.313 90.7908 173.165 95.481C183.079 98.6119 161.721 119.583 159.442 121.946C157.56 123.898 136.432 143.776 142.334 146.094C156.018 151.47 171.7 150.247 185.105 157.738C203.109 167.799 208.259 173.972 201.719 192.342C193.824 214.517 159.442 228.032 155.076 229.985C130.747 240.863 105.998 242.439 80.3143 235.331C51.6114 227.388 19.7047 203.917 13.3049 172.866C4.87667 131.974 38.8928 101.931 68.8193 79.7979C106.414 51.9935 156.812 10.4075 204.531 17.4715" stroke="black" stroke-width="5" stroke-linecap="round"/>
<path d="M541.71 135.861C531.26 137.603 533.445 141.963 541.371 147.198C562.895 161.411 594.697 156.645 616.669 146.183C638.306 135.879 646.04 111.703 624.791 96.605C600.321 79.2185 562.142 82.6603 534.434 87.8062C509.815 92.3783 484.961 102.661 460.067 105.15C456.74 105.483 462.253 102.029 462.267 102.02C472.264 94.9248 482.543 88.2423 492.809 81.5455C531.719 56.1619 571.836 33.095 615.738 17.4158C640.848 8.44815 669.688 -0.915472 695.689 10.4783C714.952 18.9197 731.795 37.1463 726.992 59.2947C724.41 71.2001 719.084 82.7468 713.794 93.6438C708.803 103.925 686.521 125.475 685.581 137.232C685.087 143.404 689.645 145.633 694.718 147.384C704.84 150.877 714.939 153.056 723.652 159.736C740.943 172.993 732.615 197.442 725.683 214.221C723.689 219.046 715.05 243.368 707.239 241.633C694.756 238.859 701.537 221.923 705.716 215.236C723.098 187.426 752.355 161.955 780.929 146.369C787.28 142.904 795.733 137.931 803.18 137.147C804.326 137.026 800.835 142.017 800.303 142.815" stroke="black" stroke-opacity="0.3" stroke-width="5" stroke-linecap="round"/>
<path d="M695.689 10.4783C714.952 18.9196 731.795 37.1462 726.992 59.2946C724.41 71.2 719.084 82.7468 713.794 93.6438C708.803 103.925 686.521 125.475 685.58 137.231C685.087 143.404 689.645 145.633 694.718 147.384C704.84 150.877 714.939 153.056 723.652 159.736C740.943 172.992 732.615 197.442 725.683 214.221C723.689 219.046 715.05 243.368 707.239 241.633C694.756 238.859 701.537 221.923 705.716 215.236C723.098 187.426 752.354 161.955 780.929 146.369C787.28 142.904 795.733 137.931 803.18 137.147C804.326 137.026 800.835 142.017 800.303 142.815" stroke="black" stroke-width="5" stroke-linecap="round"/>
<path d="M967.308 132.312C977.65 139.66 1001.35 125.309 1007.56 115.475C1012.44 107.732 1006 100.594 1000.36 97.49C988.343 90.882 972.559 97.3439 962.2 105.526C953.665 112.266 947.077 124.419 948.106 137.516C949.497 155.208 966.285 159.001 977.524 154.506C995.12 147.468 1009.35 128.613 1024.91 116.852C1041.1 104.624 1063.51 92.4836 1083.01 96.1889C1108.31 100.995 1052.99 145.909 1052.79 153.511C1052.62 160.24 1066 156.5 1077.92 165.179C1091.07 176.145 1106.76 199.724 1099.87 220.128C1096.98 228.691 1084.41 244.698 1075.62 239.874C1069.14 236.31 1071.69 221.011 1072.79 215.077C1075.85 198.611 1082.53 182.86 1091.69 170.383C1106.53 150.145 1128.09 135.47 1149.11 127.985C1151.89 126.994 1171.24 121.975 1158.95 127.067" stroke="black" stroke-opacity="0.3" stroke-width="5" stroke-linecap="round"/>
<path d="M1024.91 116.852C1041.09 104.624 1063.51 92.4836 1083.01 96.189C1108.31 100.995 1052.99 145.909 1052.79 153.511C1052.62 160.24 1066 156.5 1077.92 165.179C1091.07 176.145 1106.76 199.724 1099.87 220.129C1096.98 228.691 1084.41 244.699 1075.62 239.874C1069.14 236.31 1071.69 221.011 1072.79 215.078C1075.85 198.611 1082.53 182.86 1091.69 170.383C1106.53 150.145 1128.09 135.47 1149.11 127.985C1151.89 126.994 1171.24 121.975 1158.95 127.067" stroke="black" stroke-width="5" stroke-linecap="round"/>
<path d="M1555.61 10.3829C1583.36 10.3829 1500.1 9.9288 1472.36 10.7213C1459.75 11.0815 1421.93 11.9058 1434.54 11.9058C1437.01 11.9058 1440.24 11.386 1442.58 12.2442C1458.92 23.3564 1457.43 29.1524 1481.49 63.4226C1505.56 97.6929 1532.68 132.045 1542.75 173.577C1548.79 198.523 1546.48 215.844 1532.85 238.113C1520.61 258.098 1515.08 230.097 1513.05 218.569C1507.43 186.622 1508.87 171.42 1516.35 139.921C1521.83 116.818 1533.92 96.5736 1557.98 96.5736C1571.54 96.5736 1586.27 98.7759 1586.05 117.048C1585.88 131.205 1569.43 139.527 1568.7 153.343C1567.83 169.95 1590.72 160.985 1599.08 173.606C1608.32 187.56 1610.47 235.098 1591.92 242.356C1571.8 250.23 1571.56 218.356 1584.36 194.587C1597.72 169.766 1616.36 147.175 1633.93 125.212" stroke="black" stroke-opacity="0.3" stroke-width="5" stroke-linecap="round"/>
<path d="M1516.35 139.921C1521.83 116.818 1533.92 96.5735 1557.98 96.5735C1571.54 96.5735 1586.27 98.7758 1586.05 117.048C1585.88 131.205 1569.43 139.527 1568.7 153.343C1567.83 169.949 1590.72 160.985 1599.08 173.606C1608.32 187.56 1610.47 235.098 1591.92 242.356C1571.8 250.23 1571.56 218.356 1584.36 194.587C1597.72 169.766 1616.36 147.174 1633.93 125.212" stroke="black" stroke-width="5" stroke-linecap="round"/>
<path d="M2303.33 141.976C2302.22 140.986 2300.92 139.964 2299.31 140.423C2296.8 141.143 2310.2 148.064 2311.1 148.369C2336.61 157.033 2389.83 144.788 2394.21 113.207C2398.02 85.667 2354.23 82.3411 2345.8 104.531C2340.19 119.296 2357.27 145.972 2369.18 149.761C2385.25 154.875 2402.05 152.594 2416.58 144.372C2437.18 132.72 2464.63 84.9087 2491.29 91.7445C2513.68 97.4865 2505.16 125.762 2474.12 137.456C2451.16 152.57 2517.66 152.908 2530.61 152.57C2555.66 152.908 2551.23 153.061 2576.78 152.908C2582.5 152.874 2588.16 152.022 2593.22 154.552" stroke="black" stroke-opacity="0.3" stroke-width="5" stroke-linecap="round"/>
<path d="M2416.58 144.373C2437.18 132.72 2464.63 84.9088 2491.29 91.7446C2513.68 97.4866 2505.16 125.762 2474.12 137.456C2451.16 152.57 2517.66 152.908 2530.61 152.57C2555.66 152.908 2551.23 153.061 2576.78 152.908C2582.5 152.874 2588.16 152.022 2593.22 154.552" stroke="black" stroke-width="5" stroke-linecap="round"/>
<path d="M2957.73 3.17285C2960.86 6.69617 2956.29 6.42571 2953.35 6.46074C2926.37 6.78189 2899.41 7.72012 2872.43 8.01335C2844.55 8.31642 2816.39 6.79698 2788.59 9.3833C2781.18 10.0726 2787.02 9.50394 2790.32 10.9359C2805.63 17.5705 2819.44 39.1934 2829.32 51.7605C2856.09 85.8218 2880.36 125.189 2894.42 166.106C2902.61 189.937 2910.7 207.213 2899.46 232.225C2894.69 242.862 2879.8 242.558 2872.7 234.417C2862.59 222.818 2862.32 206.704 2865.33 193.834C2874.39 155.111 2890.4 137.953 2917.48 108.156C2925.94 98.8471 2946.29 87.1791 2960.95 97.0589C2974.62 106.27 2974.87 116.805 2971.73 131.171C2969.99 139.124 2965.57 144.226 2968.05 152.498C2970.58 160.928 2998.81 153.53 3003.58 152.772C3030.3 148.527 3111.37 149.552 3084.32 149.552" stroke="black" stroke-opacity="0.3" stroke-width="5" stroke-linecap="round"/>
<path d="M2917.48 108.156C2925.94 98.8472 2946.29 87.1793 2960.95 97.059C2974.62 106.27 2974.87 116.805 2971.73 131.171C2969.99 139.124 2965.57 144.227 2968.05 152.498C2970.58 160.928 2998.81 153.53 3003.58 152.772C3030.3 148.527 3111.37 149.552 3084.32 149.552" stroke="black" stroke-width="5" stroke-linecap="round"/>
<path d="M1903.82 133.756C1899.34 134.317 1907.82 142.611 1908.57 143.255C1923.89 156.333 1949.36 157.866 1968.12 153.758C1981.13 150.907 2000.58 141.661 2002.28 126.359C2004.7 104.501 1968.59 97.0691 1953.69 95.0324C1924.38 91.0263 1894.12 87.7617 1864.62 87.7617C1850.88 89.5521 1837.62 90.7617 1823.73 93.1608C1817.61 94.3421 1809.68 97.2707 1803.27 97.2707C1802.12 97.2707 1804.97 95.7258 1805.92 95.0787C1817.62 88.7617 1817.62 88.9243 1828.93 83.0046C1864.73 64.2617 1886.91 52.3391 1917.89 37.8598C1937.38 28.7484 2061.1 -22.3189 2055.25 32.9279C2052.95 54.6606 2039.45 74.3734 2033.15 95.0324C2028.72 109.527 2021.16 133.841 2022.46 149.451C2024.12 155.262 2035.21 155.263 2045.12 154.762C2069.25 153.542 2086.93 151.262 2110.23 151.044" stroke="black" stroke-opacity="0.3" stroke-width="5" stroke-linecap="round"/>
<path d="M2055.25 32.928C2052.95 54.6607 2039.45 74.3734 2033.15 95.0325C2028.72 109.527 2021.16 133.841 2022.46 149.451C2024.12 155.262 2035.21 155.263 2045.12 154.762C2069.25 153.542 2086.93 151.262 2110.23 151.044" stroke="black" stroke-width="5" stroke-linecap="round"/>
</svg>
